**kern	**kern
*staff2	*staff1
*clefG2	*clefG2
*k[f#c#]	*k[f#c#]
*M3/4	*M3/4
*D:	*D
*clefF4	*clefG2
=105:|!|:	=105:|!|:
2.AA 2.A	(12cc#L 12ee
.	12a
.	12eeJ) 12gg
.	(12eeL 12gg
.	12cc#
.	12ggJ) 12ccc#
.	(12ggL 12ccc#
.	12ee
.	12ccc#J) 12eee
=106	=106
4a	12r
.	12ccc#'L 12eee'
.	12bb'J 12ddd'
4r	12aa'L 12ccc#'
.	12gg' 12bb'
.	12ff#'J 12aa'
4r	12ee'L 12gg'
.	12dd' 12ff#'
.	12cc#'J 12ee'
=107	=107
2.D 2.d	(12ddL 12ff#
.	12a
.	12ff#J) 12aa
.	(12ff#L 12aa
.	12dd
.	12ff#J) 12ddd
.	(12ff#L 12ddd
.	12ee 12ccc#
.	12ff#J) 12ddd
=108	=108
4DD	12r
.	(12cc#L
.	12ddJ)
4r	12dd#'L
.	12ee'
.	12ff'J
4r	12ff#'L
.	12gg'
.	12gg#'J
=109	=109
2r	12aa'L
.	12ddd'
.	12ccc#'J
.	12ccc'L
.	12bb'
.	12bb-'J
(4c# 4g	8aa'
.	8r
=110	=110
4d) 4f#	12r
.	12ddd'L
.	12ccc#'J
4r	12ccc'L
.	12bb'
.	12bb-'J
(4c# 4g	8aa'
.	8r
=111	=111
8d) 8f#	12r
.	(12eeL 12gg#
8r	.
.	12ff#J) 12aa
8G	12r
.	(12dd#L 12ff#
8r	.
.	12eeJ) 12gg
8G#	12r
.	(12cc#L 12ee#
8r	.
.	12ddJ) 12ff#
=112	=112
12r	4cc# 4ee
(12AAL	.
12C#J	.
12E'L)	4r
12A'	.
12B-'J	.
12B'L	4r
12c'	.
12c#'J	.
=	=
*-	*-
